X: 252	% 68
T: Chadham County Breakdown
S: Viola Ruth "Pioneer Western Folk Tunes" 1948 p.25 #2
R: reel
Z: 2019 John Chambers <jc:trillian.mit.edu>
M: 2/4
L: 1/16
K: C
V: 1 name="68"
|:\
e3g gage | g4- g4 | ee2g edcB | [A8F8] |\
GABG ABGA | BGAB AB3 | cBcG AGEG | [c8E8] :|
|:\
CB,CD EGAB | [c8E8] | e2ef edcB | [A8F8] |\
GABG ABGA | BGAB AB3 | cBcG AGEG | [c8E8] :|
